X:1
T:Silent Night! Holy Night!
T:Silent Night! Holy Night!
T:STILLE NACHT, Franz Gruber (1818)
T:Joseph Mohr (1792-1848)
T:S2b
T:PUBLIC DOMAIN.
Z:PUBLIC DOMAIN.
%%score ( 1 2 ) ( 3 4 )
L:1/8
Q:3/8=35
M:6/8
K:Bb
V:1 treble nm="SA"
V:2 treble 
V:3 bass nm="TB"
V:4 bass 
V:1
"Bb"!p! ((F>G))F D3 | ((F>G))F D3 |"F7"!mp! c2 c A3 |"Bb" B2 B!<(! F3!<)! |"Eb"!mf! G2 G ((B>A))G | %5
w: 1~Si- * lent night,|ho- * ly night!|All is calm,|all is bright|'round yon vir- * gin|
w: 2~Si- * lent night,|ho- * ly night!|Shep- herds quake|at the sight,|glo- ries stream * from|
w: 3~Si- * lent night,|ho- * ly night!|Son of God,|love’s pure light,|ra- diant beams * from|
"Bb" F>GF D3 |"Eb"!mp! G2 G ((B>A))G |"Bb" ((F>G))F D3 |"F7"!mf! c2 c!<(! e>cA!<)! | %9
w: mo- ther and child;|ho- ly in- fant, so|ten- der and mild,|sleep in hea- ven- ly|
w: hea- ven a- far,|heaven- ly hosts * sing|al- le- lu- ia;|Christ, the Sa- vior, is|
w: thy ho- ly face,|with the dawn of re-|deem- * ing grace,|Je- sus, Lord, at thy|
"Bb"!f!!>(! ((B3 d3))!>)! |!mp! (BF)D"F7"!>(! F>EC!>)! |"Bb"!pp! B,6 |] %12
w: peace, *|sleep * in hea- ven- ly|peace.|
w: born! *|Christ, * the Sa- vior, is|born!|
w: birth, *|Je- * sus, Lord, at thy|birth.|
V:2
 D>ED B,3 | D>ED B,3 | E2 E E3 | D2 D D3 | E2 E G>FE | D>ED B,3 | B,2 E G>FE | D>ED B,3 | %8
 E2 E E>EE | (D3 F3) | D2 B, A,>A,A, | B,6 |] %12
V:3
 B,2 B, F,3 | B,->B,B, F,3 | A,2 A, C3 | B,2 F, B,3 | B,2 B, (G,>A,)B, | B,>B,B, F,3 | %6
 E2 E (E>E)E | B,->B,B, B,3 | A,2 A, C>A,F, | (F,3 B,3) |!mp! F,2 F,!>(! F,>F,E,!>)! |!pp! D,6 |] %12
V:4
 B,,2 B,, B,,3 | (B,,>B,,)B,, B,,3 | F,2 F, F,3 | B,,2 B,, B,,3 | E,2 E, (E,>E,)E, | %5
 B,,>B,,B,, B,,3 | G,2 B, (G,>A,)B, | (B,>B,)B, F,3 | F,2 F, F,>F,F, | (B,,3 B,,3) | %10
 F,2 F, F,,>F,,F,, | B,,6 |] %12

